X: 3253
T: The WHISTLING THIEF
%R: jig
B: James Kerr "Merry Melodies" v.3 p.28 #2__
Z: 2016 John Chambers <jc:trillian.mit.edu>
M: 6/8
L: 1/8
K: G
ue |\
d2B B2B | B3- B2e |\
d2B Bcd | e3- efg |\
d2B B2B | B3- Bcd |\
e2e fef | g3- g2 :|
|: g |\
f2d e2^c |\
d3- d2g |\
f2d ed^c | d3- d2d |\
d2d def | g3 g2e |\
dBG A2G | g3 g2e |\
dBG A2B | G3- G2 :|

%%sep 1 1 500
%%sep 1 1 500

